X:1
T:Mysterious Game Theme
M:4/4
L:1/8
Q:1/4=90
K:Dm
V:1 clef=treble
V:2 clef=bass
V:3 clef=treble name="Strings"
[V:1]|:"Dm"D3E F2A2|"Gm"G4 G2AB|"A"^c6 BA|"Dm"F4 D4:|
|:"Dm"D3E F2A2|"Gm"G2BG "A"^C2A,2|"Dm"D3E F2A2|"Bb"_B4 A4:|
[V:2]|:D,2D2 D2D2|G,2G,2 G,2G,2|A,2A,2 A,2A,2|D2D2 D2D2:|
|:D,2D2 D2D2|G,2D,2 A,2F,2|D,2D2 D2D2|D2D2 D2D2:|
[V:3]|:A2A2 D2F2|D4 D2F2|E6 ^D2|A,4 F4:|
|:A2A2 D2F2|D2G2 E2^C2|A2A2 D2F2|F4 C4:|
